X:23
T: Od Yishoma
O:klezmer
C: Carlebach
Z: 1998 by John Chambers <jc@trillian.mit.edu>
N: Klez Camp 1998
M: 2/4
L: 1/8
K: Em
|: "Em"E2 E2 | B,E2E | G2 G>G | EG3 | "Am"A2 A2 | EA2c |1 "B7"BA GA | "Em"B4 :|2 "B7"BA GF | "Em"E4 |]
|: "G"Bc dB | ed2c | "E7"Bc dB | "Am"c2-c2 | AB cA | "D7"dc2c |1 BA GA | "G"B4 :|2 "B7"BA GF | "Em"E4 |]
%%sep 0 1 8cm





